X:1
T:Si mon malheur
T:Le Peletier
T:Source : Second livre contenant 31 chansons eslevées---Paris---P.Attaignant---1535. Editor : André Vierendeels (22/12/17). Notes : Original clefs : C1, C3, C4, F4 Original note values have been halved Editorial accidentals above the staff Square brackets indicate ligatures
T:Si mon malheur
T:©
T:©
C:Le Peletier
Z:©
%%score [ 1 [ 2 3 ] 4 ]
L:1/8
Q:1/4=120
M:2/2
K:F
V:1 treble nm="Alto" snm="A"
V:2 treble-8 nm="Tenor 1" snm="T 1"
V:3 treble-8 nm="Tenor 2" snm="T 2"
V:4 bass nm="Bass" snm="B"
V:1
 z2 G2 G2 G2 | A3 G F2 E2 | D2 C2 D2 F2 | G2 A3 G G2- | GF F4 E2 | F2 A2 A2 G2 | F4 z2 G2 | %7
w: Si mon mal-|heur m'y con- ti-|nu- * e, m'y|_ con- ti- *|* * nu- *|e, ie ne scay|pas, ie|
 A2 A2 B4 | G2 A3 F B2- | BA A4 G2 | A4 z2 c2 | B2 A2 G2 F2 | EFGE FEDC | D2 D2 C2 E2 | %14
w: ne ditz pas|que ie _ _|_ _ _ fe-|ray, à|tout le moins ie|chan- * * * * * * *|* ge- ray, ie|
 D2 C3 B,/A,/ B,2 | C2 G2 G2 G2 | A3 G F2 E2 | D2 C2 D2 F2 | G2 A3 G G2- | GF F4 E2 | F2 G2 G2 G2 | %21
w: chan- * * * ge-|ray, si le cou-|ra- ge ne m'y|mu- * e, ne|m'y mu- * *||e,, si le cou-|
 A3 G F2 E2 | D2 C2 D2 F2 | G2 A3 G G2- | GF F4 E2 | F8 |] %26
w: ra- ge ne m'y|mu- * e, ne|m'y mu- * *||e.|
V:2
 z2 e2 e2 e2 | f2 F2 c3 B | A4 F4 | B2 A2 c4 | z2 c2 c2 c2 | A2 A2 F2 G2 | A2 f4 e2 | f4 g3 f | %8
w: Si mon mal-|heur m'y con- ti-|nu- *|* * e,|ie ne scay|pas, ie ne ditz|pas que ie|fe- ray, _|
 ed f4 f2 | f4 d4- | d2 f2 e2 c2 | d2 c3 BBA | c4 F4 | B2 B2 G2 G2 | A2 F2 G4 | E2 e2 e2 e2 | %16
w: _ _ que ie|fe- ray,|_ et tout le|moins ie chan- * *|* ge-|ray, ie chan- ge-||ray, si le cou-|
 f2 F2 c3 B | A4 F4 | B2 A2 c4 | z2 c2 c2 c2 | A2 e2 e2 e2 | f2 F2 c3 B | A4 F4 | B2 A2 c4 | %24
w: ra- ge ne- m'y|mu- *|* * e,|ne m'y mu-|e, si le cou-|ra- ge ne m'y|mu- *|* * e,|
 z2 c2 c2 c2 | A8 |] %26
w: ne m'y mu-|e.|
V:3
 z4 z2 c2 | c3 B A2 G2 | F2 E2 D3 C | DE F4 E2 | F2 A2 G4 | F4 z2 c2 | d2 B2 c4 | z2 c2 d2 B2 | %8
w: Si|mon mal- heur m'y|con- ti- nu- *|||e, ie|ne scay pas,|ie ne ditz|
 c3 B AG d2- | d2 c2 B4 | A8 | z8 | z2 c2 B2 A2 | G2 F2 EFGE | FEDC D2 D2 | C4 z2 c2 | c3 B A2 G2 | %17
w: pas _ _ _ que|_ ie fe-|ray,||à tout le|moins ie chan- * * *|* * * * * ge-|ray, si|le cou- ra- ge|
 F2 E2 D3 C | DE F4 E2 | F2 A2 G4 | F2 z2 z2 c2 | c3 B A2 G2 | F2 E2 D3 C | DE F4 E2 | F2 A2 G4 | %25
w: ne m'y mu- *|||e, si|le cou- ra- ge|ne m'y mu- *|||
 F8 |] %26
w: e.|
V:4
 z2 C,2 C,2 C,2 | F,6 C,2 | D,2 A,,2 B,,3 A,, | G,,2 F,,2 C,4 | D,2 F,2 C,4 | F,,2 F,2 F,2 E,2 | %6
w: Si mon mal-|heur m'y|cin- ti- nu- *|* e, m'y|con- ti- nu-|e, ie ne scay|
 D,4 z2 C,2 | F,2 A,2 G,4 | C,2 F,4 B,,2 | F,4 G,4 | D,4 z4 | z2 F,2 E,2 D,2 | C,2 C,2 D,4 | %13
w: pas, ie|ne ditz pas|que ie fe-||ray,|à tout le|moins ie chan-|
 B,,4 C,4 | F,,2 A,,2 G,,4 | z2 C,2 C,2 C,2 | F,6 C,2 | D,2 A,,2 B,,3 A,, | G,,2 F,,2 C,4 | %19
w: ge- *|* * ray,|si le cou-|ra- ge|ne m'y mu- *|* e, ne|
 D,2 F,2 C,4 | F,,2 C,2 C,2 C,2 | F,6 C,2 | D,2 A,,2 B,,3 A,, | G,,2 F,,2 C,4 | D,2 F,2 C,4 | %25
w: m'y mu- *|e, si le cou-|ra- ge|ne m'y mu- *|* * e,|ne m'y mu-|
 F,,8 |] %26
w: e.|

